X:1
T:Divertimento
T:Sonata in C Major HOB.XVI:7
T:Sonata in C Major
T:HOB. XVI:7
T:Joseph Haydn
T:Public Domain (PianoXML typeset)
T:Public Domain (PianoXML typeset)
C:Joseph Haydn
Z:Public Domain (PianoXML typeset)
%%score { 1 | ( 2 3 ) }
L:1/8
Q:1/4=100
M:2/4
K:C
V:1 treble nm="Grand Piano"
V:2 bass 
V:3 bass 
V:1
"^Allegro moderato."!f! [EGc]2 [GBd]2 | [Gce]2 z!mf! (!1!c/4d/4e/4f/4) | !wedge!g!4!c' ba | %3
 g2 (Tf2 | e2) (!3!e/c/g/e/) | (e/d/g/d/) (d/c/a/c/) | (!2!B/G/c/G/ d/G/e/G/) | %7
 (!2!d/g/)!4!g/!3!g/ (^f/c'/)!4!c'/!3!c'/ |!f! (!4!c'/b/a/g/ Ta2 | g2) z2 :: %10
!f! [Bdg]2!mf! (A/4B/4c/4d/4e/4^f/4 z/) | !wedge!g(c'/g/) (g/=f/)(f/e/ | %12
 f2) (G/A/4B/4c/4d/4e/4^f/4) | !wedge!gd'/c'/ b/a/g/=f/ |!p! e/c/g/e/ a/A/!5!f/d/ |{c} B4 | %16
!f! [EGc]2 T[Bd]2 | [ce]2 z!mf! (!1!c/4d/4e/4f/4) | !wedge!g!4!c' ba | g2 Tf2 | %20
 !2!e/c/g/e/ a/f/e/d/ | c2 (Td2 | c2) z2 :|[M:3/4]!mf!"^Minuet." (c2 a2) e>g | (f2 d2) d>f | %25
 (e2 c2) A>d |{c} B4 z2 |!f! d2 g/^f/g/a/ b/a/b/c'/ | d'2 g/^f/g/a/ b/a/b/c'/ | .d'2 B2 (TA2 | %30
 G4) z2 ::!mf! (g2 c'2) e>g | (f2 d'2) d>f | (e2 g2) ^g>a |{c} B4 z2 |!f! G2 c/B/c/d/ e/d/e/f/ | %36
 g2 cd/e/ f/g/a/b/ | .c'2 [ce]2 [Bd]2 | [EGc]6 ::[K:Eb]!p!"^Trio." z G z G z G | %40
 z [eg] ([eg][df])([df][ce]) | z G z G z G | z [df] ([df][ce])([ce][=Bd]) | %43
!mf! z/ c/e/c/ z/ c/e/c/ z/ c/e/c/ | z [=ac'] ([ac'][gb]) ([gb][^fa]) |!mf! [gb]2 [Bg]2 [=A^f]2 | %46
 [Bg]2 z2 z2 ::!p! z !3!c z c z !2!c | c/d/=e/f/ g/_a/b/c'/ a2 |!mf! z !1!d z !3!d z !2!d | %50
 !1!d/=e/^f/!1!g/ =a/=b/c'/d'/ b2 | z G z G z G | z [eg] ([eg][df])([df][ce]) | z G z G z G | %54
 z [df] ([df][ce])([ce][=Bd]) | z/ c/e/c/ z/ c/e/c/ z/ c/e/c/ | z [fa] ([fa][eg])([eg][df] | %57
 [ce]2) [Ec]2 [D=B]2 | !fermata![Cc]2 z2 z2!D.C.! :| %59
[K:C][M:3/8]!f!"^Finale."[Q:1/4=80]"^Allegro." c2 (3(e/d/c/) | g2 f | e2 e/G/ | d/G/d/G/e/G/ | %63
 f/G/e/G/d/G/ | e2 (3(G/A/B/) |!f! c2 (3(e/d/c/) | g2 f | e2!mf! e/G/ | d/G/d/G/e/G/ | %69
 d/G/d/G/c/G/ | B/d/B/G/A/^F/ |!f! G2 z | z3 | z3 | z (3(c'/b/a/) (3(g/^f/e/) | d/a/c'/a/b/g/ | %76
 !wedge!ag^f | [Bdg]2 z | z3 | z3 | z (3(c'/b/a/) (3(g/^f/e/) | d/a/c'/a/b/g/ | !wedge!ag^f | %83
 [Bdg]2 z ::!f! g2 (3(b/a/g/) | d'2!mf! =f | e/G/d/G/f/G/ | e/G/d/G/g/G/ | g/G/f/G/e/G/ | d2 z | %90
!f! g2 (3(b/a/g/) | d'2!mp! f | _e/G/d/G/f/G/ | _e/G/d/G/g/G/ | g/G/f/G/_e/G/ | d2 z | %96
!f! c2 (3(e/d/c/) | g2 f | e2!mf! e/G/ | d/G/d/G/e/G/ | f/G/e/G/d/G/ |!f! e2 z | z3 | z3 | %104
 z (3(f/e/d/) (3(c/B/A/) | G/d/f/d/e/c/ | dcB | [EGc]2 z | z3 | z3 |!f! z (3(f/e/d/) (3(c/B/A/) | %111
 G/d/ f/d/ e/c/ | .d.c.B | [EGc]2 z :| %114
V:2
 [C,C]2 [G,,G,]2 | [C,,C,]2 z2 |[K:treble] !3
5!EAGF | !1!ECDG, |[K:bass] !1!CC, z C | %5
 !1!B,G, A,F, | !3!G,A, B,!2!C | !1!B,2 A,D, | !3!G,B,!3!CD | !wedge!!1!G,D, G,,2 :: [G,,G,]2 z2 | %11
 z EDC | [G,D]2 z2 | z !4!G,A,B, | C!4!G, A,F, | !1!G,G,, G,/F,/E,/D,/ | C,2 [G,G]2 | [CG]2 z2 | %18
[K:treble] EAGF | ECD[K:bass]G, | CG, F,2 | E,A,F,G, | !wedge!C,G,, C,,2 :|[M:3/4] [C,C]4 C2 | %24
 D2 B,2 G,2 | C2 E,2 F,2 | G,2 D,2 G,,2 | G,2 D,2 G,,2 | [G,B,]2 z2 z2 | [G,B,]2 D2 D,2 | %30
 G,2 D,2 G,,2 ::[K:treble] e4 c2 | d2 B2 G2 | c2 E2 F2 | G2 D2 G,2 |[K:bass] [C,E,G,C]2 z2 z2 | %36
 [C,E,G,C]2 z2 z2 | E,2 G,2 G,,2 | C,2 G,,2 C,,2 ::[K:Eb] C,2 [E,G,]2 [D,F,]2 | [C,E,]2 z2 z2 | %41
 G,2 [=B,D]2 [=A,C]2 | [G,=B,]2 z2 z2 | C2 E2 D2 | ^F,4 z2 | G,2 D2 D,2 | G,G,,.G,.F,.E,.D, :: %47
 C,2[K:treble] [C=E]2 [DF]2 | [=EG]2 z2 F2 |[K:bass] D,2[K:treble] [D^F]2 [=EG]2 | [^F=A]2 z2 G2 | %51
[K:bass] [C,,C,]2 [E,G,]2 [D,F,]2 | [C,E,]2 z2 z2 | [G,,G,]2 ([=B,D]2 [=A,C]2 | [G,=B,]2) z2 z2 | %55
 C2 (E2 C2 | =B,4) z2 | C2 G,2 G,,2 | !fermata![C,,E,]2 G,F,E,D, :| %59
[K:C][M:3/8][K:treble] C/G/E/G/C/G/ | B,/G/D/G/B,/G/ | C2!mf! z |[K:bass] B,2 C | DCB, | C2 z | %65
[K:treble] C/G/E/G/C/G/ | B,/G/D/G/B,/G/ | C2[K:bass] C | B,2 C | D2 E, | D,2 D,, | %71
 G,,/G,/A,,/A,/B,,/B,/ | A,,/A,/B,,/B,/C,/C/ | B,,/B,/C,/C/D,/D/ | [E,E]2 z | (^F,2 G,) | CDD, | %77
 G,,/G,/A,,/A,/B,,/B,/ | A,,/A,/B,,/B,/C,/C/ | B,,/B,/C,/C/D,/D/ | [E,E]2 z | (^F,2 G,) | CDD, | %83
 G,D,G,, :: G,/D/B,/D/G,/D/ | G,/D/B,/D/G,/D/ | CB,D | CB,E | EDC | G,/D/B,/D/G,/D/ | %90
 G,/D/B,/D/G,/D/ | G,/D/B,/D/G,/D/ | CB,D | CB,_E | _EDC | G,/D/B,/D/G,/D/ | %96
[K:treble] C/G/=E/G/C/G/ | B,/G/D/G/B,/G/ | C2[K:bass] C | (B,2 C) | .D.C.B, | C,/C/D,/D/E,/E/ | %102
 D,/D/E,/E/F,/F/ | C,/C/D,/D/E,/E/ | [A,,A,]2 z | B,2 C | F,G,G,, | C,/C/D,/D/E,/E/ | %108
 D,/D/E,/E/F,/F/ | E,/E/F,/F/G,/G/ | [A,,A,]2 z | B,2 C | F,G,G,, | (C,!wedge!C,,) z :| %114
V:3
 x4 | x4 |[K:treble] C2 z2 | x4 |[K:bass] x4 | x4 | x4 | x4 | x4 | x4 :: x4 | G,4 | x4 | x4 | x4 | %15
 x4 | x4 | x4 |[K:treble] C2 z2 | x3[K:bass] x | x4 | x4 | x4 :|[M:3/4] x6 | x6 | x6 | x6 | x6 | %28
 x6 | x6 | x6 ::[K:treble] x6 | x6 | x6 | x6 |[K:bass] x6 | x6 | x6 | x6 ::[K:Eb] x6 | x6 | x6 | %42
 x6 | x6 | x6 | x6 | x6 :: x2[K:treble] x4 | x6 |[K:bass] x2[K:treble] x4 | x6 |[K:bass] x6 | x6 | %53
 x6 | x6 | x6 | x6 | x6 | x6 :|[K:C][M:3/8][K:treble] x3 | x3 | x3 |[K:bass] x3 | x3 | x3 | %65
[K:treble] x3 | x3 | x2[K:bass] x | x3 | x3 | x3 | x3 | x3 | x3 | x3 | x3 | x3 | x3 | x3 | x3 | %80
 x3 | x3 | x3 | x3 :: x3 | x3 | x3 | x3 | x3 | x3 | x3 | x3 | x3 | x3 | x3 | x3 |[K:treble] x3 | %97
 x3 | x2[K:bass] x | x3 | x3 | x3 | x3 | x3 | x3 | x3 | x3 | x3 | x3 | x3 | x3 | x3 | x3 | x3 :| %114

